X: 14
M:2/4
L:1/16
K:D
u(AG)|\
.F2(AF) DFAF | .G2(BG) dGBG | .F2(AF) DFA=c | BGF>G E2D2 |
.F2(AF) DFAF | .G2((3BAG) dGBG | FGAF DFAc | BGF>G E2D2 |]
.A2(Ac) BAGF | GABc dBAG | FAAc BFGB | AFDF E2D2 |


